X:12086
T:Nottingham Castle
R:Reel:Polka
O:England
M:2/4
A:Lancashire
B:Winder
K:G
gfga b2g2 | dedc B2G2 | D2G2 AGAB | c2B2 A4 |\
gfga b2g2 | dedc B2G2 | D2G2 Bddc | B2G2 G4 :|*
|:B2AG c2c2| B2AG A2D2 | g2g2 fafd| ege^c d4| \
BdBG c2c2 | BdBG A2D2 | g2g2 fafd | ege^c d4:|**
